X: 10191
Q: "Slow."
M: C
L: 1/8
K: Em
e>fg>e f2BB | e>gf>e dc Bz/B/ |\
e>fga {g}f2He>e | {e}d>B A>G ~g2ga |\
b>gfd
e>f gz/g/ | e>d BA G>G A>B |\
c>A B>G E2 Hg {a}g/e/ | {e}d>c BA G>G AB |\
c>A B>G E2E |]


